assets/logosaks.svg

<svg width="166" height="55" viewBox="0 0 166 55" fill="none" xmlns="http://www.w3.org/2000/svg">
<path d="M19.9472 0.976952C19.8632 0.981049 19.5581 0.993336 19.2714 1.00562C16.3427 1.1285 13.5984 1.58725 11.4481 2.31224C7.58147 3.61885 5.02763 5.82862 3.7927 8.94156C3.37082 10.0065 3.12096 11.1124 2.99603 12.4538C2.94484 13.0232 2.94484 14.5059 2.99603 15.0753C3.11891 16.4003 3.36877 17.4939 3.7927 18.5466C5.09727 21.7865 7.84156 24.1233 12.7383 26.1651C14.4094 26.8614 16.5004 27.5925 19.1997 28.424C20.6087 28.8582 21.3152 29.065 23.0909 29.5647C27.1643 30.7075 28.7986 31.2298 30.5865 31.9568C34.6722 33.6198 36.9291 35.7005 37.693 38.5103C37.8015 38.9117 37.908 39.5323 37.949 39.9992C37.9776 40.3249 37.9776 41.2628 37.949 41.5967C37.7401 44.0829 36.7018 45.8442 34.707 47.0996C34.3466 47.3269 33.6093 47.6914 33.126 47.8819C32.0098 48.3222 30.7401 48.6376 29.2041 48.8547C26.7178 49.209 23.0909 49.2704 20.0086 49.0103C16.0663 48.6765 13.2134 47.7611 11.1183 46.1616C10.6391 45.795 10.0329 45.2236 9.64584 44.771C8.47849 43.4112 7.65929 41.6868 7.16573 39.5569C6.83396 38.1151 6.64145 36.36 6.63325 34.6581L6.63121 34.1625H3.61248H0.59375V34.6171C0.59375 35.1291 0.620374 35.8213 0.665429 36.5381C1.05045 42.4875 2.95508 46.7514 6.5329 49.6759C9.86088 52.3936 14.7924 53.9255 21.2784 54.2532C22.927 54.3372 25.188 54.3372 26.767 54.2532C30.0991 54.0771 32.999 53.5569 35.3419 52.7152C37.1789 52.0557 38.6535 51.2386 39.9458 50.1654C40.2837 49.8848 41.0312 49.1394 41.3077 48.8056C42.9768 46.7985 43.8349 44.4065 43.9926 41.3304C44.0192 40.8266 44.0069 39.7576 43.97 39.3541C43.7939 37.3778 43.2573 35.7189 42.2927 34.1666C41.4961 32.8845 40.341 31.6578 38.9218 30.5867C36.4253 28.7046 32.9969 27.1297 27.7295 25.4503C26.5827 25.0858 26.3103 24.9998 24.934 24.5779C21.6573 23.5744 21.3398 23.474 19.937 23.0173C16.3223 21.8398 14.0347 20.8526 12.4311 19.7754C10.8869 18.7391 9.91617 17.5922 9.40418 16.2017C9.08469 15.3333 8.93724 14.2704 8.99048 13.2116C9.0724 11.5937 9.53934 10.3444 10.463 9.27333C11.9068 7.60013 14.4934 6.58638 18.1757 6.24846C19.6666 6.11329 21.4525 6.07233 22.6751 6.14606C25.9601 6.34881 28.6798 7.168 30.8486 8.60569C31.4937 9.03372 31.9873 9.43922 32.5546 10.0065C33.6646 11.1145 34.4244 12.2941 34.9999 13.7953C35.5221 15.1592 35.8375 16.9287 35.8396 18.479V18.7616H38.8644H41.8872L41.8729 18.2947C41.8238 16.6358 41.6169 15.1879 41.2278 13.7338C40.8407 12.2982 40.2816 10.9179 39.6078 9.74027C38.8685 8.44799 38.0944 7.43424 37.0601 6.40206C36.4355 5.77742 36.0403 5.43336 35.3685 4.92956C33.6441 3.63114 31.6064 2.64606 29.2553 1.97022C27.4715 1.45823 25.5259 1.14489 23.224 1.00357C22.8901 0.983093 20.2892 0.962616 19.9472 0.976952Z" fill="#E6EDFB"/>
<path d="M141.393 0.987267C139.28 1.06304 137.199 1.3088 135.495 1.68358C131.522 2.56012 128.683 4.15959 126.885 6.53525C125.611 8.21665 124.915 10.1909 124.719 12.669C124.686 13.0929 124.686 14.4364 124.719 14.8603C124.843 16.4434 125.161 17.7521 125.716 18.9747C127.088 21.9955 129.828 24.238 134.543 26.1918C136.384 26.9536 138.446 27.6623 141.864 28.7088C142.372 28.8624 143.744 29.2597 144.905 29.5853C146.593 30.0584 146.863 30.1362 148.018 30.4803C152.547 31.8238 155.27 33.1078 157.071 34.7503C158.621 36.1655 159.45 37.7854 159.676 39.8355C159.716 40.2246 159.723 41.2486 159.684 41.6582C159.606 42.5101 159.446 43.2208 159.186 43.8864C158.105 46.6512 155.373 48.267 150.732 48.8855C148.317 49.2091 144.838 49.2603 141.854 49.0186C138.213 48.7258 135.45 47.9168 133.396 46.5467C132.534 45.9712 131.712 45.2073 131.08 44.3922C129.683 42.5941 128.825 40.1693 128.511 37.1219C128.423 36.2474 128.368 35.2828 128.368 34.5578V34.1625H125.345H122.32L122.335 34.781C122.367 36.1962 122.427 37.1035 122.564 38.2176C122.974 41.5742 123.895 44.2755 125.405 46.5324C127.79 50.1041 131.68 52.4326 137.113 53.5385C139.038 53.9297 140.998 54.157 143.503 54.2778C144.24 54.3127 147.298 54.3127 148.029 54.2778C150.398 54.1632 152.278 53.9379 154.091 53.5529C159.008 52.5104 162.385 50.3703 164.189 47.155C165.16 45.4265 165.662 43.444 165.742 41.0274C165.817 38.7889 165.424 36.8372 164.542 35.0739C163.984 33.9618 163.257 32.9686 162.303 32.0122C160.544 30.2509 158.217 28.8071 154.869 27.3981C153.05 26.6342 150.867 25.8744 147.506 24.834C147.191 24.7377 146.804 24.6169 146.646 24.5677C146.489 24.5186 146.263 24.451 146.145 24.4141C146.026 24.3793 145.768 24.2995 145.571 24.2401C145.374 24.1786 144.895 24.0312 144.506 23.9124C139.802 22.4686 137.264 21.5183 135.35 20.482C133.175 19.3044 131.843 17.9794 131.196 16.339C130.615 14.8685 130.563 12.8205 131.069 11.2845C131.602 9.67891 132.685 8.48288 134.389 7.63092C135.86 6.89365 137.781 6.42671 140.144 6.2301C140.939 6.16252 141.223 6.14819 142.171 6.12156C144.94 6.04578 147.334 6.36118 149.45 7.08207C152.673 8.17773 155.049 10.1786 156.35 12.884C157.126 14.4999 157.507 16.1935 157.585 18.3767L157.597 18.7617H160.609H163.62L163.608 18.2026C163.565 16.2918 163.237 14.4159 162.639 12.6382C161.22 8.42759 158.363 5.19792 154.312 3.22981C151.545 1.88428 148.299 1.14291 144.486 0.985218C143.912 0.962688 142.077 0.962688 141.393 0.987267Z" fill="#E6EDFB"/>
<path d="M75.3541 2.75259C74.8012 3.60864 72.5136 7.13322 72.1818 7.64112C72.1347 7.71485 71.5715 8.58115 70.9325 9.56623C70.2936 10.5513 69.7304 11.4176 69.6833 11.4913C69.6341 11.5651 69.0545 12.458 68.393 13.4779C67.7315 14.4978 67.1131 15.4501 67.0168 15.5975C66.9205 15.7429 66.3225 16.6645 65.6877 17.6455C65.0507 18.6245 64.4671 19.5235 64.3913 19.6423C64.3135 19.7611 63.7093 20.6909 63.0478 21.7108C62.3863 22.7307 61.8067 23.6236 61.7576 23.6973C61.7105 23.771 61.1698 24.6046 60.5554 25.5507C58.5177 28.6882 56.7154 31.4633 56.4656 31.8483C56.3304 32.0572 55.7508 32.9501 55.1754 33.8348C54.6019 34.7196 54.0551 35.5613 53.9589 35.7087C53.8646 35.8541 53.2543 36.7942 52.6031 37.7977C51.9518 38.7991 50.8603 40.4826 50.1762 41.5352C49.4922 42.5879 48.3494 44.3492 47.6367 45.4469C46.924 46.5446 45.771 48.3182 45.0768 49.3893C44.3825 50.4583 43.5387 51.7588 43.2028 52.2769C42.867 52.7951 42.5393 53.2989 42.4738 53.3972L42.355 53.5774H45.9349H49.5168L50.3524 52.2913C50.8111 51.5847 51.2432 50.9191 51.3129 50.8126C51.3825 50.7061 51.9641 49.8112 52.6031 48.8261C53.2421 47.841 53.8319 46.9317 53.9117 46.8088C53.9937 46.6839 54.1165 46.4955 54.1841 46.389C54.3746 46.0961 56.3222 43.0958 56.6048 42.6616C56.74 42.4527 57.3216 41.5598 57.8951 40.6751C58.4685 39.7904 59.0153 38.9466 59.1116 38.8012C59.2078 38.6537 59.8263 37.7014 60.4878 36.6815C61.1493 35.6616 61.7289 34.7687 61.7781 34.695C61.8641 34.5639 62.8082 33.1057 65.4603 29.0221C66.2099 27.867 66.9001 26.8021 66.9963 26.6567C67.0905 26.5092 67.7008 25.5692 68.3521 24.5677C69.0033 23.5642 70.1052 21.8685 70.7994 20.7994C72.5013 18.18 75.5815 13.4328 78.3053 9.23855C78.9463 8.25347 79.5177 7.37284 79.575 7.28273C79.6344 7.19262 80.2058 6.31198 80.8448 5.3269C81.4858 4.34182 82.0961 3.39975 82.2046 3.23386C82.3132 3.06798 82.5774 2.66043 82.7904 2.32866C83.0054 1.99483 83.1856 1.7245 83.1959 1.72245C83.2041 1.72245 83.2102 13.3898 83.2102 27.6499V53.5774H86.2269H89.2415L89.2354 42.547C89.2333 35.3647 89.2374 31.5186 89.2517 31.5247C89.262 31.5268 89.6224 31.8217 90.0525 32.176C90.4846 32.5303 91.2055 33.1262 91.6561 33.4969C92.1087 33.8696 93.0589 34.652 93.7676 35.2377C94.4782 35.8234 95.2892 36.4911 95.5698 36.7225C96.0797 37.1423 98.0868 38.795 101.271 41.4206C102.187 42.1763 103.211 43.02 103.547 43.2965C103.883 43.573 104.907 44.4168 105.822 45.1725C106.739 45.9282 107.858 46.8498 108.308 47.2205C108.759 47.5911 109.893 48.5271 110.827 49.2971C111.763 50.0671 113.26 51.3021 114.155 52.0394C115.05 52.7766 115.835 53.4238 115.898 53.4791L116.015 53.5774L120.357 53.5733L124.698 53.5672L124.072 53.0531C123.725 52.7684 122.974 52.152 122.398 51.681C121.825 51.2079 121.018 50.5464 120.606 50.2085C120.195 49.8726 119.556 49.3463 119.183 49.0411C118.812 48.736 117.762 47.8738 116.848 47.1242C115.937 46.3746 114.88 45.5083 114.503 45.1991C112.586 43.6262 112.003 43.145 111.175 42.4671C110.68 42.0616 109.961 41.4718 109.578 41.1564C109.195 40.841 108.579 40.3351 108.206 40.03C107.835 39.7248 107.092 39.1166 106.557 38.6763C106.023 38.238 105.273 37.6216 104.894 37.3103C104.513 36.999 103.891 36.487 103.512 36.1757C103.131 35.8623 102.203 35.1005 101.447 34.482C100.694 33.8635 99.7169 33.0607 99.2766 32.7002C98.0806 31.7172 97.0894 30.9042 96.2559 30.2201C95.8442 29.8822 95.1725 29.3293 94.7608 28.9914C94.3471 28.6534 93.8024 28.207 93.5464 27.9981C93.2924 27.7892 93.0835 27.6131 93.0815 27.6049C93.0815 27.5987 94.171 26.6997 95.5042 25.6101C96.8354 24.5186 99.1456 22.6262 100.639 21.4056C102.132 20.183 103.522 19.0443 103.731 18.8743C103.94 18.7043 104.796 18.0019 105.636 17.3158C106.475 16.6277 108.794 14.7312 110.786 13.099C115.544 9.20578 117.649 7.48138 120.944 4.78419C122.443 3.55745 123.9 2.36552 124.184 2.13205L124.698 1.71221L120.357 1.70607L116.015 1.70197L115.898 1.80027C115.835 1.85557 115.05 2.50273 114.155 3.24001C113.26 3.97728 111.763 5.21222 110.827 5.98226C109.893 6.7523 108.759 7.68823 108.308 8.05891C107.858 8.4296 106.739 9.35119 105.822 10.1069C104.907 10.8626 103.883 11.7064 103.547 11.9828C103.211 12.2593 102.187 13.1031 101.271 13.8588C99.1415 15.6139 96.2313 18.0121 95.5698 18.5569C93.6692 20.1236 89.8928 23.2365 89.477 23.5785C89.3582 23.6768 89.2558 23.7588 89.2456 23.7588C89.2374 23.7588 89.2333 18.7965 89.2354 12.7304L89.2415 1.70197L82.6368 1.70402H76.032L75.3541 2.75259Z" fill="#E6EDFB"/>
<path d="M77.2747 28.6758C77.2112 28.6922 77.1293 28.723 77.0945 28.7414C77.0371 28.7721 76.7299 29.0199 76.3756 29.3251C76.3163 29.3763 76.2425 29.4357 76.2118 29.4602C76.1811 29.4828 76.1524 29.5073 76.1463 29.5135C76.1381 29.5237 76.0418 29.6036 75.8411 29.7695C75.8145 29.792 75.7305 29.8616 75.6568 29.9251C75.5094 30.05 74.7557 30.6808 74.6123 30.8017C74.5652 30.8426 74.5038 30.8918 74.4792 30.9143C74.4567 30.9348 74.3952 30.986 74.344 31.0269C74.2928 31.0679 74.2478 31.1048 74.2416 31.1109C74.2355 31.117 74.172 31.1723 74.0983 31.2338C74.0246 31.2952 73.9549 31.3546 73.9426 31.3669C73.9304 31.3771 73.8812 31.4201 73.8321 31.4591C73.7829 31.498 73.4716 31.7601 73.1378 32.0407C72.804 32.3213 72.4906 32.5834 72.4394 32.6264C72.0708 32.9336 71.78 33.1773 71.6919 33.2531C71.6018 33.3289 71.1697 33.6914 70.9055 33.9125C70.8563 33.9535 70.7396 34.0518 70.6495 34.1296C70.3996 34.3406 70.3894 34.3508 70.2686 34.4471C70.2071 34.4983 70.1477 34.5474 70.1354 34.5597C70.1252 34.572 70.0822 34.6068 70.0433 34.6355C70.0044 34.6662 69.9532 34.7072 69.9306 34.7276C69.8713 34.7829 69.6992 34.9263 69.265 35.2908C68.7899 35.6881 68.794 35.6841 68.7653 35.7107C68.7531 35.7209 68.6875 35.7762 68.6199 35.8295C68.5524 35.8848 68.493 35.936 68.4868 35.9421C68.4766 35.9544 68.2697 36.1285 68.2001 36.1838C68.1837 36.1981 67.9195 36.4193 67.6144 36.6753C67.3092 36.9313 67.0184 37.175 66.9693 37.218C66.9201 37.259 66.8587 37.3081 66.8341 37.3306C66.8095 37.3511 66.7686 37.3859 66.7419 37.4064C66.7174 37.4289 66.6395 37.4924 66.572 37.5498C66.5044 37.6071 66.4286 37.6726 66.3999 37.6952C66.105 37.9389 65.9821 38.2502 66.06 38.5492C66.0743 38.6024 66.0825 38.6475 66.0784 38.6475C66.0743 38.6475 66.0927 38.6905 66.1193 38.7437C66.189 38.883 66.3262 39.0305 66.4368 39.0858C66.6498 39.1943 66.4675 39.1882 69.9409 39.2004L73.1869 39.2107L73.3446 39.2742C73.531 39.352 73.615 39.4093 73.7911 39.5875C73.8812 39.6797 73.9488 39.7718 74 39.8763C74.0614 40.0032 74.3891 40.8142 74.7065 41.6273C74.7455 41.7277 74.7926 41.8382 74.811 41.8731C74.8294 41.9058 74.8438 41.9386 74.8417 41.9447C74.8417 41.9509 74.8479 41.9734 74.856 41.9959C74.9011 42.1127 75.0465 42.4813 75.3168 43.1612C75.4827 43.579 75.6199 43.9292 75.622 43.9395C75.624 43.9518 75.6363 43.9804 75.6486 44.003C75.6609 44.0255 75.7408 44.2241 75.8268 44.4433C75.9128 44.6624 75.9927 44.8611 76.0009 44.8836C76.0111 44.9061 76.0623 45.0351 76.1156 45.1703C76.1688 45.3055 76.22 45.4386 76.2323 45.4673C76.2425 45.4959 76.2528 45.5226 76.2528 45.5287C76.2528 45.5349 76.2651 45.5615 76.2794 45.5901C76.3122 45.6536 76.4125 45.9035 76.4125 45.9219C76.4125 45.9281 76.4309 45.9772 76.4535 46.0284C76.476 46.0817 76.4944 46.1308 76.4965 46.139C76.4965 46.1472 76.5088 46.1718 76.5211 46.1943C76.5333 46.2168 76.5456 46.2455 76.5477 46.2578C76.5497 46.2701 76.5866 46.3663 76.6276 46.4728C76.818 46.9541 76.8958 47.0565 77.1477 47.1732C77.373 47.2756 77.6577 47.2715 77.8748 47.163C78.0038 47.0975 78.141 46.9541 78.2168 46.8046L78.2864 46.6674L78.2926 38.0147C78.2946 32.2885 78.2905 29.3271 78.2762 29.2636C78.2147 28.9708 78.0079 28.7557 77.7191 28.682C77.5512 28.639 77.414 28.6369 77.2747 28.6758Z" fill="#E6EDFB"/>
</svg>

<svg width="166" height="55" fill="none" xmlns="http://www.w3.org/2000/svg"><path d="m19.947.977-.676.029c-2.928.123-5.673.581-7.823 1.306-3.867 1.307-6.42 3.517-7.655 6.63-.422 1.065-.672 2.17-.797 3.512-.051.57-.051 2.052 0 2.621.123 1.325.373 2.419.797 3.472 1.304 3.24 4.049 5.576 8.945 7.618 1.671.696 3.762 1.428 6.462 2.259 1.409.434 2.115.641 3.89 1.14 4.074 1.143 5.709 1.666 7.497 2.393 4.085 1.663 6.342 3.743 7.106 6.553.108.402.215 1.022.256 1.49.029.325.029 1.263 0 1.597-.209 2.486-1.247 4.247-3.242 5.503-.36.227-1.098.591-1.581.782-1.116.44-2.386.756-3.922.973-2.486.354-6.113.415-9.195.155-3.943-.334-6.796-1.249-8.89-2.848a10.893 10.893 0 0 1-1.473-1.391c-1.168-1.36-1.987-3.084-2.48-5.214-.332-1.442-.525-3.197-.533-4.899l-.002-.495H.594v.454c0 .512.026 1.204.071 1.921.385 5.95 2.29 10.213 5.868 13.138 3.328 2.718 8.26 4.25 14.745 4.577 1.649.084 3.91.084 5.489 0 3.332-.176 6.232-.696 8.575-1.538 1.837-.66 3.312-1.476 4.604-2.55a15.252 15.252 0 0 0 1.362-1.36c1.669-2.007 2.527-4.398 2.685-7.475.026-.503.014-1.572-.023-1.976-.176-1.976-.713-3.635-1.677-5.187-.797-1.282-1.952-2.51-3.371-3.58-2.497-1.882-5.925-3.457-11.192-5.137-1.147-.364-1.42-.45-2.796-.872-3.277-1.004-3.594-1.104-4.997-1.56-3.615-1.178-5.902-2.165-7.506-3.243-1.544-1.036-2.515-2.183-3.027-3.573-.32-.869-.467-1.932-.414-2.99.082-1.618.55-2.868 1.473-3.939 1.444-1.673 4.03-2.687 7.713-3.025 1.49-.135 3.277-.176 4.5-.102 3.284.203 6.004 1.022 8.173 2.46.645.428 1.138.833 1.706 1.4 1.11 1.108 1.87 2.288 2.445 3.79.522 1.363.837 3.133.84 4.683v.283H41.887l-.014-.467c-.05-1.66-.256-3.107-.645-4.561-.387-1.436-.946-2.816-1.62-3.994a15.057 15.057 0 0 0-2.548-3.338 13.747 13.747 0 0 0-1.692-1.472c-1.724-1.299-3.762-2.284-6.113-2.96-1.784-.512-3.73-.825-6.031-.966-.334-.02-2.935-.041-3.277-.027zM141.393.987c-2.113.076-4.194.322-5.898.697-3.973.876-6.812 2.476-8.61 4.851-1.274 1.682-1.97 3.656-2.166 6.134a24.264 24.264 0 0 0 0 2.191c.124 1.583.442 2.892.997 4.115 1.372 3.02 4.112 5.263 8.827 7.217 1.841.762 3.903 1.47 7.321 2.517.508.153 1.88.55 3.041.876 1.688.473 1.958.551 3.113.895 4.529 1.344 7.252 2.628 9.053 4.27 1.55 1.416 2.379 3.035 2.605 5.086.04.389.047 1.413.008 1.822-.078.852-.238 1.563-.498 2.228-1.081 2.765-3.813 4.381-8.454 5-2.415.323-5.894.374-8.878.133-3.641-.293-6.404-1.102-8.458-2.472a10.106 10.106 0 0 1-2.316-2.155c-1.397-1.798-2.255-4.223-2.569-7.27a27.598 27.598 0 0 1-.143-2.564v-.395h-6.048l.015.618c.032 1.415.092 2.322.229 3.437.41 3.356 1.331 6.057 2.841 8.314 2.385 3.572 6.275 5.9 11.708 7.007 1.925.39 3.885.618 6.39.739.737.035 3.795.035 4.526 0 2.369-.115 4.249-.34 6.062-.725 4.917-1.043 8.294-3.183 10.098-6.398.971-1.729 1.473-3.711 1.553-6.128.075-2.238-.318-4.19-1.2-5.953-.558-1.112-1.285-2.105-2.239-3.062-1.759-1.761-4.086-3.205-7.434-4.614-1.819-.764-4.002-1.524-7.363-2.564-.315-.096-.702-.217-.86-.266-.157-.05-.383-.117-.501-.154-.119-.035-.377-.115-.574-.174l-1.065-.328c-4.704-1.443-7.242-2.394-9.156-3.43-2.175-1.178-3.507-2.503-4.154-4.143-.581-1.47-.633-3.518-.127-5.054.533-1.606 1.616-2.802 3.32-3.654 1.471-.737 3.392-1.204 5.755-1.4a27.912 27.912 0 0 1 2.027-.11c2.769-.075 5.163.24 7.279.961 3.223 1.096 5.599 3.097 6.9 5.802.776 1.616 1.157 3.31 1.235 5.493l.012.385h6.023l-.012-.56a18.775 18.775 0 0 0-.969-5.564c-1.419-4.21-4.276-7.44-8.327-9.408-2.767-1.346-6.013-2.087-9.826-2.245a67.757 67.757 0 0 0-3.093.002z" fill="#E6EDFB"/><path d="M75.354 2.753c-.553.856-2.84 4.38-3.172 4.888l-1.25 1.925-1.249 1.925c-.049.074-.629.967-1.29 1.987l-1.376 2.12c-.096.145-.694 1.066-1.33 2.047-.636.98-1.22 1.878-1.296 1.997l-1.343 2.069a908.639 908.639 0 0 1-1.29 1.986l-1.203 1.854a54661.029 54661.029 0 0 0-6.596 10.158l-1.356 2.089-2.427 3.737-2.54 3.912-2.56 3.942a5265.932 5265.932 0 0 0-2.602 4.008l-.119.18h7.162l.835-1.286c.46-.706.891-1.372.96-1.478l1.291-1.987 1.309-2.017c.082-.125.205-.313.272-.42l2.42-3.727c.136-.21.718-1.102 1.291-1.987s1.12-1.728 1.217-1.874l1.376-2.12c.661-1.02 1.24-1.912 1.29-1.986.086-.131 1.03-1.59 3.682-5.673.75-1.155 1.44-2.22 1.536-2.365l1.356-2.09L70.8 20.8c1.702-2.619 4.782-7.366 7.506-11.56.641-.986 1.213-1.866 1.27-1.956.06-.09.63-.971 1.27-1.956l1.36-2.093.585-.905c.215-.334.396-.605.406-.607.008 0 .014 11.668.014 25.928v25.927h6.031l-.006-11.03c-.002-7.182.002-11.028.017-11.022.01.002.37.297.8.651.433.354 1.153.95 1.604 1.32l2.112 1.742 1.802 1.484a10169.835 10169.835 0 0 1 7.977 6.575c.336.276 1.36 1.12 2.275 1.876l2.486 2.047 2.519 2.077 3.328 2.742c.895.738 1.68 1.385 1.743 1.44l.117.098 4.342-.004 4.341-.006-.626-.514-1.674-1.372c-.573-.473-1.38-1.135-1.792-1.472-.411-.336-1.05-.863-1.423-1.168l-2.335-1.917c-.911-.75-1.968-1.616-2.345-1.925-1.917-1.573-2.5-2.054-3.328-2.732l-1.597-1.31c-.383-.316-.999-.822-1.372-1.127-.371-.305-1.114-.913-1.649-1.354l-1.663-1.366c-.381-.311-1.003-.823-1.382-1.134-.381-.314-1.309-1.076-2.065-1.694l-2.17-1.782-3.021-2.48-1.495-1.229-1.215-.993a10.97 10.97 0 0 1-.465-.393c0-.006 1.09-.905 2.423-1.995 1.331-1.091 3.642-2.984 5.135-4.204l3.092-2.532 1.905-1.558 5.15-4.217c4.758-3.893 6.863-5.618 10.158-8.315 1.499-1.227 2.956-2.418 3.24-2.652l.514-.42-4.341-.006-4.342-.004-.117.098c-.063.056-.848.703-1.743 1.44l-3.328 2.742-2.519 2.077-2.486 2.048c-.915.756-1.939 1.6-2.275 1.876l-2.276 1.876a38602.831 38602.831 0 0 1-11.794 9.72 2.29 2.29 0 0 1-.231.18c-.009 0-.013-4.962-.01-11.029l.005-11.028-6.604.002h-6.605l-.678 1.049z" fill="#E6EDFB"/><path d="M77.275 28.676a1.04 1.04 0 0 0-.18.065c-.058.031-.365.279-.72.584a6.143 6.143 0 0 1-.229.189 9.37 9.37 0 0 1-.305.256l-.184.155-1.045.877-.133.112c-.022.02-.084.072-.135.113a3.365 3.365 0 0 0-.102.084l-.144.123c-.073.061-.143.12-.155.133l-.11.092c-.05.039-.361.301-.695.582l-.699.585c-.368.308-.659.551-.747.627a651.773 651.773 0 0 1-1.042.877c-.25.21-.26.22-.381.317-.062.051-.121.1-.134.113a.816.816 0 0 1-.092.075 2.99 2.99 0 0 0-.112.093c-.06.055-.232.198-.666.563-.475.397-.471.393-.5.42l-.145.119a4.422 4.422 0 0 0-.133.112c-.01.012-.217.187-.287.242l-.586.491c-.305.256-.596.5-.645.543-.049.041-.11.09-.135.113-.025.02-.065.055-.092.075-.025.023-.103.086-.17.144-.068.057-.143.123-.172.145-.295.244-.418.555-.34.854a.334.334 0 0 1 .018.099.847.847 0 0 0 .358.438c.214.108.032.102 3.505.114l3.246.01.158.064c.186.078.27.135.446.313a1.1 1.1 0 0 1 .209.29c.061.126.39.937.707 1.75.039.1.086.211.104.246a.22.22 0 0 1 .03.072c0 .006.007.028.015.05.045.118.19.486.46 1.166a52.793 52.793 0 0 1 .333.842c.012.023.092.221.178.44l.174.44.115.287.116.297c.01.029.02.056.02.062 0 .006.013.032.027.061.033.064.133.313.133.332 0 .006.019.055.041.106.023.054.041.103.043.111 0 .008.013.033.025.055a.289.289 0 0 1 .027.064c.002.012.039.108.08.215.19.481.268.584.52.7.225.103.51.099.727-.01a.865.865 0 0 0 .342-.358l.07-.138.006-8.652c.002-5.727-.003-8.688-.017-8.751a.744.744 0 0 0-.557-.582.821.821 0 0 0-.444-.006z" fill="#E6EDFB"/></svg>
